data/icons/scalable/status/webview-filler-symbolic.svg

<?xml version="1.0" encoding="UTF-8" standalone="no"?>
<svg
   width="16"
   height="16"
   version="1.1"
   id="svg4"
   sodipodi:docname="webview-filler-symbolic.svg"
   inkscape:version="1.1.1 (3bf5ae0d25, 2021-09-20)"
   xmlns:inkscape="http://www.inkscape.org/namespaces/inkscape"
   xmlns:sodipodi="http://sodipodi.sourceforge.net/DTD/sodipodi-0.dtd"
   xmlns="http://www.w3.org/2000/svg"
   xmlns:svg="http://www.w3.org/2000/svg">
  <defs
     id="defs8" />
  <sodipodi:namedview
     id="namedview6"
     pagecolor="#acacac"
     bordercolor="#eeeeee"
     borderopacity="1"
     inkscape:pageshadow="0"
     inkscape:pageopacity="0"
     inkscape:pagecheckerboard="0"
     showgrid="true"
     inkscape:snap-bbox="true"
     inkscape:bbox-paths="true"
     inkscape:object-paths="true"
     inkscape:snap-bbox-midpoints="false"
     inkscape:snap-center="false"
     inkscape:snap-global="true"
     inkscape:zoom="32"
     inkscape:cx="11.265625"
     inkscape:cy="9.9375"
     inkscape:window-width="2560"
     inkscape:window-height="1371"
     inkscape:window-x="0"
     inkscape:window-y="32"
     inkscape:window-maximized="1"
     inkscape:current-layer="svg4"
     inkscape:bbox-nodes="true">
    <inkscape:grid
       type="xygrid"
       id="grid2915" />
  </sodipodi:namedview>
  <path
     id="rect1205"
     style="opacity:1;fill:#000000;stroke-width:2;stroke-linecap:round;stroke-linejoin:round"
     d="M 2 5 A 1.0001 1.0001 0 0 0 1 6 L 1 10 A 1.0001 1.0001 0 0 0 1.1699219 10.544922 L 3 8.6386719 L 3 8 C 3 7.446 3.446 7 4 7 L 12 7 C 12.554 7 13 7.446 13 8 C 13 8.554 12.554 9 12 9 L 6 9 L 6 11 L 14 11 A 1.0001 1.0001 0 0 0 15 10 L 15 6 A 1.0001 1.0001 0 0 0 14 5 L 2 5 z M 4.0390625 9 L 2.1191406 11 L 5 11 L 5 9 L 4.0390625 9 z " />
  <path
     d="m 5,8 v 6.048951 l -1.3659675,-1.333334 -0.7808857,1.59324 c -0.1905594,0.431236 -1.1847319,0.0845 -0.9020979,-0.491841 l 0.7727272,-1.65443 H 1 Z"
     style="color:#000000;fill:#000000;stroke-width:1;marker:none"
     display="block"
     overflow="visible"
     id="path2913" />
  <rect
     style="opacity:0.3;fill:#000000;stroke-width:1.99999;stroke-linecap:round;stroke-linejoin:round"
     id="rect847"
     width="12"
     height="3"
     x="2"
     y="1"
     rx="1"
     ry="1" />
  <rect
     style="opacity:0.3;fill:#000000;stroke-width:1.99999;stroke-linecap:round;stroke-linejoin:round"
     id="rect1111"
     width="12"
     height="3"
     x="2"
     y="12"
     rx="1"
     ry="1" />
</svg>

<svg version="1.1" viewBox="0 0 16 16" xmlns="http://www.w3.org/2000/svg">
    <g>
        <path d="m2 5a1.0001 1.0001 0 0 0-1 1v4a1.0001 1.0001 0 0 0 0.16992 0.54492l1.8301-1.9063v-0.63867c0-0.554 0.446-1 1-1h8c0.554 0 1 0.446 1 1s-0.446 1-1 1h-6v2h8a1.0001 1.0001 0 0 0 1-1v-4a1.0001 1.0001 0 0 0-1-1h-12zm2.0391 4-1.9199 2h2.8809v-2h-0.96094z" stroke-linecap="round" stroke-linejoin="round" stroke-width="2"/>
        <path d="m5 8v6.049l-1.366-1.3333-0.78089 1.5932c-0.19056 0.43124-1.1847 0.0845-0.9021-0.49184l0.77273-1.6544h-1.7238z" color="#000000" display="block" overflow="visible"/>
        <rect x="2" y="1" width="12" height="3" rx="1" ry="1" opacity=".3" stroke-linecap="round" stroke-linejoin="round" stroke-width="2"/>
        <rect x="2" y="12" width="12" height="3" rx="1" ry="1" opacity=".3" stroke-linecap="round" stroke-linejoin="round" stroke-width="2"/>
    </g>
</svg>
